MonoIcons/scalable/status/microphone-hardware-disabled-symbolic.svg

<?xml version="1.0" encoding="UTF-8"?>
<svg height="16px" viewBox="0 0 16 16" width="16px" xmlns="http://www.w3.org/2000/svg">
    <path d="m 8 0 c -1.660156 0 -3 1.339844 -3 3 v 2 h 6 v -2 c 0 -1.660156 -1.339844 -3 -3 -3 z m -5.199219 11 c 0.878907 1.515625 2.40625 2.613281 4.199219 2.917969 v 2.082031 h 2 v -2.082031 c 1.792969 -0.304688 3.320312 -1.402344 4.199219 -2.917969 h -1.832031 c -0.820313 0.921875 -2.019532 1.5 -3.367188 1.5 s -2.546875 -0.578125 -3.367188 -1.5 z m 0 0" fill="#2e3434" fill-opacity="0.34902"/>
    <path d="m 0 6 h 16 v 4 h -16 z m 0 0" fill="#2e3436"/>
</svg>

<svg width="16" height="16" viewBox="0 0 16 16" fill="none" xmlns="http://www.w3.org/2000/svg">
<g clip-path="url(#clip0_231_868)">
<path d="M8 0C6.33984 0 5 1.33984 5 3V5H11V3C11 1.33984 9.66016 0 8 0ZM2.80078 11C3.67969 12.5156 5.20703 13.6133 7 13.918V16H9V13.918C10.793 13.6133 12.3203 12.5156 13.1992 11H11.3672C10.5469 11.9219 9.34766 12.5 8 12.5C6.65234 12.5 5.45313 11.9219 4.63281 11H2.80078Z" fill="#2E3436" fill-opacity="0.5"/>
<path d="M0 6H16V10H0V6Z" fill="#2E3436"/>
</g>
<defs>
<clipPath id="clip0_231_868">
<rect width="16" height="16" fill="white"/>
</clipPath>
</defs>
</svg>
